X:1
T: Mrs. Ella Wilson
C:Muriel A Johnstone
R:Reel
%Q: 232
K:D
M:4/4
L:1/8
|:A2|d4 f3e|d2 fg af d2|e2 ef ^ga bc'|a3b a2 a2|
d'2 af d2 fd|B2 ed c2 A2|B4 f3e|d4 d2 g2|
f2 fg a2 f2|b2 b2 ba gf|e2 ef g2 e2|a2 a2 ag fe|
d2 de f2 d2|g2 gf ed cB|A4 f3e|d6:|
